X:290
T: SAG BRUDER WAS IST DIR
N: F0509
O: Europa, Mitteleuropa, Deutschland
R: Studenten -, Trink - Lied
M: 2/4
L: 1/16
K: G
D2 | G4D2G2 | B2B2G2
B2 | d4d2d2 | d2c2B2
A2 | G2G2D2G2 | B4G2
B2 | d2d2d2d2 | d2c2Bz
A2 | G4D2G2 | B4G2
B2 | d4d4 | d2c2B2
A2 | G4D2G2 | B4G2
B2 | d4d2d2 | d4z2
B2 | A2G2F2G2 | A4z2
B2 | A2G2F2G2 | A4z2
D2 | G2A2B2c2 | d3ed2
c2 | B2A2B2c2 | d3ed2
c2 | B2A2B2c2 | d2z2
e4 | d2c2B2A2 | G4z2

